X: 10
T: Munster, The
Z: Cashel
S: https://thesession.org/tunes/372#setting51906
R: jig
M: 6/8
L: 1/8
K: Gmaj
|: G3 AGA | Bdd gdB | G2 B AGA | B2 E EDE |
G3 AGA | B2 d efg | edB AGA |1 BGG G2 D :|2 BGG GBd ||
|: g3 efg | fdd dfd | g3 aga | bge e2 f |
g3 efg | agf efg | edB AGA |1 BGG GBd :|2 BGG G3 ||

%-------------------- TUNE SEPARATOR --------------------%

